_includes/icons/ios-pdf.svg

<svg fill="#666" height="50" viewBox="0 0 50 50" width="50" xmlns="http://www.w3.org/2000/svg"><path d="m6 0v50h38v-35.414062l-14.585937-14.585938zm2 2h20v14h14v32h-34zm22 1.414063 10.585938 10.585937h-10.585938zm-12.683594 21.078125c-.800781 0-1.546875.085937-2.125.222656v11.285156h1.800782v-4.472656c.171875.019531.324218.019531.511718.019531.96875 0 2.074219-.390625 2.753907-1.191406.527343-.613281.851562-1.394531.851562-2.546875 0-.988281-.308594-1.871094-.921875-2.449219-.679687-.644531-1.664062-.867187-2.871094-.867187zm7.242188 0c-.78125 0-1.511719.085937-2.039063.222656v11.25c.410157.066406 1.039063.117187 1.667969.117187 1.476563 0 2.601563-.371093 3.363281-1.15625.867188-.847656 1.480469-2.394531 1.480469-4.859375 0-2.296875-.578125-3.789062-1.515625-4.625-.679687-.628906-1.632812-.949218-2.957031-.949218zm5.949219.050781v11.457031h1.820312v-4.945312h2.703125v-1.511719h-2.703125v-3.417969h2.890625v-1.582031zm-5.660157 1.410156c1.582032 0 2.308594 1.496094 2.308594 4.097656 0 3.484375-1.136719 4.539063-2.394531 4.539063-.117188 0-.289063 0-.441406-.035156v-8.550782c.152343-.03125.339843-.050781.527343-.050781zm-7.226562.015625c1.222656 0 1.664062.902344 1.664062 1.972656 0 1.308594-.660156 2.125-1.847656 2.125-.1875 0-.308594 0-.445312-.035156v-3.976562c.152343-.050782.375-.085938.628906-.085938z"/></svg>

<svg xmlns="http://www.w3.org/2000/svg" viewBox="0 0 50 50" width="50" height="50" fill="#666"><path d="M 6 0 L 6 50 L 44 50 L 44 14.585938 L 29.414063 0 Z M 8 2 L 28 2 L 28 16 L 42 16 L 42 48 L 8 48 Z M 30 3.414063 L 40.585938 14 L 30 14 Z M 17.316406 24.492188 C 16.515625 24.492188 15.769531 24.578125 15.191406 24.714844 L 15.191406 36 L 16.992188 36 L 16.992188 31.527344 C 17.164063 31.546875 17.316406 31.546875 17.503906 31.546875 C 18.472656 31.546875 19.578125 31.15625 20.257813 30.355469 C 20.785156 29.742188 21.109375 28.960938 21.109375 27.808594 C 21.109375 26.820313 20.800781 25.9375 20.1875 25.359375 C 19.507813 24.714844 18.523438 24.492188 17.316406 24.492188 Z M 24.558594 24.492188 C 23.777344 24.492188 23.046875 24.578125 22.519531 24.714844 L 22.519531 35.964844 C 22.929688 36.03125 23.558594 36.082031 24.1875 36.082031 C 25.664063 36.082031 26.789063 35.710938 27.550781 34.925781 C 28.417969 34.078125 29.03125 32.53125 29.03125 30.066406 C 29.03125 27.769531 28.453125 26.277344 27.515625 25.441406 C 26.835938 24.8125 25.882813 24.492188 24.558594 24.492188 Z M 30.507813 24.542969 L 30.507813 36 L 32.328125 36 L 32.328125 31.054688 L 35.03125 31.054688 L 35.03125 29.542969 L 32.328125 29.542969 L 32.328125 26.125 L 35.21875 26.125 L 35.21875 24.542969 Z M 24.847656 25.953125 C 26.429688 25.953125 27.15625 27.449219 27.15625 30.050781 C 27.15625 33.535156 26.019531 34.589844 24.761719 34.589844 C 24.644531 34.589844 24.472656 34.589844 24.320313 34.554688 L 24.320313 26.003906 C 24.472656 25.972656 24.660156 25.953125 24.847656 25.953125 Z M 17.621094 25.96875 C 18.84375 25.96875 19.285156 26.871094 19.285156 27.941406 C 19.285156 29.25 18.625 30.066406 17.4375 30.066406 C 17.25 30.066406 17.128906 30.066406 16.992188 30.03125 L 16.992188 26.054688 C 17.144531 26.003906 17.367188 25.96875 17.621094 25.96875 Z"/></svg>
